flaticon/sewing/wool.svg

<svg xmlns="http://www.w3.org/2000/svg" width="32" height="32" viewBox="0 0 24 24">
    <path d="M 23.417969 4.550781 C 22.726562 3.25 21.792969 2.3125 21.753906 2.273438 C 21.710938 2.234375 20.777344 1.339844 19.476562 0.605469 C 18.136719 -0.125 16.59375 -0.164062 15.25 0.484375 C 13.910156 1.136719 13.015625 2.394531 12.773438 3.898438 C 12.609375 4.945312 12.730469 5.949219 13.007812 6.914062 L 6.90625 13.015625 C 5.972656 12.707031 4.953125 12.613281 3.914062 12.757812 L 3.871094 12.757812 C 2.949219 12.882812 2.132812 13.285156 1.480469 13.886719 C 1.4375 13.914062 1.402344 13.945312 1.375 13.988281 C 1.011719 14.34375 0.703125 14.765625 0.457031 15.238281 C -0.191406 16.617188 -0.152344 18.121094 0.582031 19.464844 C 1.273438 20.761719 2.207031 21.699219 2.246094 21.738281 C 2.289062 21.777344 3.222656 22.671875 4.523438 23.40625 C 5.214844 23.769531 5.945312 23.972656 6.71875 23.972656 C 7.40625 23.972656 8.097656 23.8125 8.707031 23.527344 C 10.050781 22.835938 10.945312 21.617188 11.1875 20.113281 L 11.1875 20.074219 C 11.332031 19.027344 11.234375 17.992188 10.925781 17.042969 L 17 10.96875 C 17.648438 11.171875 18.378906 11.292969 19.070312 11.292969 C 19.394531 11.292969 19.722656 11.292969 20.085938 11.253906 L 20.128906 11.253906 C 21.632812 11.011719 22.890625 10.117188 23.539062 8.773438 C 24.191406 7.394531 24.152344 5.890625 23.417969 4.550781 Z M 22.726562 4.957031 C 22.898438 5.257812 23.019531 5.574219 23.097656 5.898438 C 20.894531 6.484375 20.242188 6.339844 18.289062 5.496094 C 17.785156 4.871094 17.371094 4.25 17.070312 3.664062 C 17.574219 3.84375 17.945312 3.9375 18.339844 3.9375 C 18.988281 3.9375 19.679688 3.695312 20.941406 3.167969 L 21.335938 3.003906 C 21.617188 3.3125 22.242188 4.042969 22.726562 4.957031 Z M 19.070312 1.296875 C 19.722656 1.667969 20.285156 2.085938 20.664062 2.390625 L 20.65625 2.394531 C 18.328125 3.277344 18.300781 3.289062 16.660156 2.625 C 16.605469 2.433594 16.570312 2.246094 16.550781 2.070312 C 16.515625 1.542969 16.617188 1.121094 16.855469 0.835938 C 17.605469 0.753906 18.371094 0.910156 19.070312 1.296875 Z M 15.617188 1.214844 C 15.679688 1.183594 15.746094 1.152344 15.8125 1.125 C 15.726562 1.429688 15.699219 1.773438 15.738281 2.152344 C 15.972656 4.367188 18.433594 7.472656 21.707031 9.730469 C 21.277344 10.046875 20.777344 10.273438 20.242188 10.394531 C 16.226562 7.878906 15.414062 5.441406 14.398438 2.3125 C 14.386719 2.285156 14.371094 2.261719 14.355469 2.238281 C 14.691406 1.808594 15.113281 1.457031 15.617188 1.214844 Z M 13.382812 7.679688 C 13.503906 7.960938 13.667969 8.246094 13.828125 8.492188 C 13.910156 8.613281 13.949219 8.695312 14.03125 8.816406 C 14.03125 8.816406 14.03125 8.855469 14.074219 8.855469 C 14.234375 9.058594 14.398438 9.222656 14.558594 9.425781 C 14.683594 9.546875 14.84375 9.710938 14.964844 9.832031 C 15.324219 10.109375 15.761719 10.390625 16.238281 10.589844 L 10.617188 16.210938 C 10.007812 14.953125 8.992188 13.9375 7.734375 13.328125 Z M 1.75 14.769531 C 2.765625 15.457031 3.714844 16.238281 4.535156 17.046875 C 3.441406 16.683594 2.554688 16.671875 0.804688 17.152344 C 0.824219 16.625 0.953125 16.097656 1.191406 15.601562 C 1.339844 15.292969 1.527344 15.015625 1.75 14.769531 Z M 0.871094 17.964844 C 3.175781 17.324219 3.773438 17.484375 5.710938 18.335938 C 6.207031 18.941406 6.621094 19.542969 6.929688 20.117188 C 5.335938 19.386719 4.671875 19.648438 2.359375 20.65625 C 2.042969 20.277344 1.621094 19.714844 1.273438 19.054688 C 1.078125 18.707031 0.945312 18.335938 0.871094 17.964844 Z M 4.929688 22.714844 C 3.972656 22.171875 3.21875 21.53125 2.9375 21.28125 C 5.277344 20.269531 5.515625 20.25 7.328125 21.25 C 7.355469 21.269531 7.386719 21.28125 7.417969 21.292969 C 7.472656 21.488281 7.511719 21.679688 7.53125 21.859375 C 7.570312 22.429688 7.449219 22.875 7.164062 23.160156 C 7.160156 23.164062 7.15625 23.167969 7.152344 23.175781 C 6.402344 23.261719 5.632812 23.105469 4.929688 22.714844 Z M 8.382812 22.796875 C 8.339844 22.816406 8.300781 22.835938 8.257812 22.859375 C 8.351562 22.539062 8.382812 22.179688 8.34375 21.777344 C 8.109375 19.605469 5.65625 16.472656 2.390625 14.210938 C 2.824219 13.914062 3.324219 13.703125 3.855469 13.597656 C 7.828125 16.09375 8.59375 18.515625 9.601562 21.574219 C 9.625 21.625 9.65625 21.667969 9.695312 21.707031 C 9.351562 22.164062 8.910156 22.542969 8.382812 22.796875 Z M 10.414062 19.949219 L 10.414062 19.992188 C 10.367188 20.265625 10.296875 20.535156 10.199219 20.789062 C 9.300781 18.054688 8.398438 15.773438 5.203125 13.503906 C 6.605469 13.570312 7.886719 14.132812 8.871094 15.113281 C 10.128906 16.375 10.660156 18.121094 10.414062 19.949219 Z M 15.167969 8.816406 C 14.480469 8.125 13.992188 7.273438 13.746094 6.378906 L 13.707031 6.214844 L 13.691406 6.230469 C 13.539062 5.53125 13.511719 4.832031 13.585938 4.0625 L 13.585938 4.019531 C 13.632812 3.730469 13.710938 3.453125 13.816406 3.183594 C 14.722656 5.941406 15.648438 8.234375 18.976562 10.496094 C 18.53125 10.480469 18.097656 10.414062 17.6875 10.320312 C 16.753906 9.996094 15.859375 9.507812 15.167969 8.816406 Z M 22.808594 8.410156 C 22.679688 8.683594 22.515625 8.933594 22.324219 9.15625 C 21.292969 8.457031 20.332031 7.664062 19.5 6.835938 C 20 6.992188 20.453125 7.070312 20.941406 7.070312 C 21.542969 7.070312 22.242188 6.945312 23.195312 6.695312 C 23.203125 7.28125 23.070312 7.863281 22.808594 8.410156 Z M 22.808594 8.410156"/>
</svg>

<svg xmlns="http://www.w3.org/2000/svg" width="32" height="32" viewBox="0 0 24 24">
    <path d="M23.418 4.55a10.54 10.54 0 0 0-1.664-2.277c-.043-.039-.977-.933-2.277-1.668-1.34-.73-2.883-.77-4.227-.12-1.34.652-2.234 1.91-2.477 3.413-.164 1.047-.043 2.051.235 3.016l-6.102 6.102a6.613 6.613 0 0 0-2.992-.258h-.043a4.369 4.369 0 0 0-2.39 1.129.328.328 0 0 0-.106.101 4.924 4.924 0 0 0-.918 1.25c-.648 1.38-.61 2.883.125 4.227a10.576 10.576 0 0 0 1.664 2.273c.043.04.977.934 2.277 1.668.692.364 1.422.567 2.196.567a4.74 4.74 0 0 0 1.988-.446 4.594 4.594 0 0 0 2.48-3.414v-.039a6.795 6.795 0 0 0-.261-3.031L17 10.969a7.099 7.099 0 0 0 2.07.324c.325 0 .653 0 1.016-.04h.043c1.504-.241 2.762-1.136 3.41-2.48.652-1.378.613-2.882-.121-4.222zm-.691.407c.171.3.293.617.37.941-2.202.586-2.855.442-4.808-.402a10.944 10.944 0 0 1-1.219-1.832c.504.18.875.273 1.27.273.648 0 1.34-.242 2.601-.769l.395-.164c.281.308.906 1.039 1.39 1.953zm-3.657-3.66c.653.371 1.215.789 1.594 1.094l-.008.004c-2.328.882-2.355.894-3.996.23a3.389 3.389 0 0 1-.11-.555c-.034-.527.067-.949.305-1.234a3.723 3.723 0 0 1 2.215.46zm-3.453-.082c.063-.031.13-.063.195-.09a2.738 2.738 0 0 0-.074 1.027c.235 2.215 2.696 5.32 5.969 7.578-.43.317-.93.543-1.465.665-4.015-2.516-4.828-4.954-5.844-8.082-.011-.028-.027-.051-.043-.075.336-.43.758-.781 1.262-1.023zM13.383 7.68c.12.28.285.566.445.812.082.121.121.203.203.324 0 0 0 .04.043.04.16.203.324.367.485.57.125.12.285.285.406.406.36.277.797.559 1.273.758l-5.62 5.62a6.214 6.214 0 0 0-2.884-2.882zM1.75 14.77a19.884 19.884 0 0 1 2.785 2.277c-1.094-.363-1.98-.375-3.73.105.02-.527.148-1.054.386-1.55.149-.309.336-.586.559-.832zm-.879 3.195c2.305-.64 2.902-.48 4.84.37.496.606.91 1.208 1.219 1.782-1.594-.73-2.258-.469-4.57.54a9.393 9.393 0 0 1-1.087-1.602 3.718 3.718 0 0 1-.402-1.09zm4.059 4.75a12.21 12.21 0 0 1-1.992-1.434c2.34-1.011 2.578-1.031 4.39-.031.027.02.059.031.09.043.055.195.094.387.113.566.04.57-.082 1.016-.367 1.301a.054.054 0 0 0-.012.016c-.75.086-1.52-.07-2.222-.461zm3.453.082c-.043.02-.082.039-.125.062.094-.32.125-.68.086-1.082-.235-2.172-2.688-5.304-5.953-7.566a3.963 3.963 0 0 1 1.464-.613c3.973 2.496 4.739 4.918 5.747 7.976.023.051.054.094.093.133a3.598 3.598 0 0 1-1.312 1.09zm2.031-2.848v.043a4.206 4.206 0 0 1-.215.797c-.898-2.734-1.8-5.016-4.996-7.285a5.51 5.51 0 0 1 3.668 1.61c1.258 1.261 1.79 3.007 1.543 4.835zm4.754-11.133a5.578 5.578 0 0 1-1.422-2.437l-.039-.164-.016.015c-.152-.699-.18-1.398-.105-2.168V4.02c.047-.29.125-.567.23-.836.907 2.757 1.832 5.05 5.16 7.312a6.881 6.881 0 0 1-1.288-.176c-.934-.324-1.829-.812-2.52-1.504zm7.64-.406a3.309 3.309 0 0 1-.484.746 19.737 19.737 0 0 1-2.824-2.32c.5.156.953.234 1.441.234.602 0 1.301-.125 2.254-.375a3.844 3.844 0 0 1-.386 1.715zm0 0"/>
</svg>
